X: 1
T: Bourr\'ee \`a Tournadre
R: bourree 3
S: Qu\'ebec City workshop, from Betsy Hooper
M: 3/8
L: 1/8
K: G
|:\
B>AB | cA2 | G/A/BA | G/F/GA |\
B>AB | cA2 | G/A/BA | G3 :|
|:\
DEF | GA2 |1 G/A/B>A | G/F/ED :|2 G/A/BA | G3 |]
